F[ERK1
CUT[ICH STAND AUF HOHEM BERGE]
REG[Europa, Mitteleuropa, Deutschland]
KEY[E0089C 16  F 2/4]
MEL[13  5_5+15342  3__2_
    2_  3_354_46  5__0_
    5_  +1_+1_765_  6__5__  4__3_
    5_  6_543_2_  1__0_ //] >>
FCT[erzaehlendes Volks - Lied, Sage, Liebe, Leid
    Ballade ?]
